icons/linear-ele-other-platform-element.svg

<svg xmlns="http://www.w3.org/2000/svg" width="32px" height="32px" viewBox="0 0 32 32" version="1.1">
    <title>linear-ele-other-platform-element</title>
    <g id="linear-ele-other-platform-element" stroke-width="1" fill-rule="evenodd">
        <path d="M9.49542904,6.1245 C12.349419,4.3745 15.307719,3.8225 18.370419,4.4685 C21.433119,5.1145 23.912419,6.8025 25.808419,9.5315 L26.371419,10.5005 L26.371419,10.5315 C26.434119,10.6775 26.439419,10.8285 26.387419,10.9845 C26.335419,11.1405 26.246719,11.2705 26.121419,11.3755 L15.121419,18.5005 C14.954719,18.6045 14.788119,18.6405 14.621419,18.6095 C14.454719,18.5785 14.319419,18.4895 14.215419,18.3435 L13.652419,17.4685 C13.402419,17.0515 13.324419,16.6245 13.418419,16.1875 C13.512419,15.7505 13.757119,15.3955 14.152419,15.1245 L21.183419,10.5305 C21.350119,10.4265 21.449119,10.2915 21.480419,10.1245 C21.511719,9.9575 21.475419,9.7915 21.371419,9.6245 C21.350719,9.5615 21.309119,9.5095 21.246419,9.4685 C19.809119,8.3225 18.199719,7.6975 16.418419,7.5935 C14.637119,7.4895 12.965119,7.9375 11.402419,8.9375 C9.44375904,10.2915 8.23008904,12.0625 7.76142904,14.2505 C7.29275904,16.4385 7.68342904,18.5425 8.93342904,20.5635 C10.266719,22.5005 12.022119,23.7035 14.199419,24.1725 C16.376719,24.6415 18.475719,24.2505 20.496419,23.0005 C20.913119,22.7505 21.340119,22.6775 21.777419,22.7815 C22.214719,22.8855 22.569119,23.1355 22.840419,23.5315 L23.403419,24.3445 C23.486719,24.5115 23.512719,24.6725 23.481419,24.8285 C23.450119,24.9845 23.372119,25.1145 23.247419,25.2195 C22.976719,25.4695 22.674719,25.6885 22.341419,25.8755 C19.487419,27.6255 16.529119,28.1775 13.466419,27.5315 C10.403719,26.8855 7.92442904,25.1875 6.02842904,22.4375 C4.27842904,19.5835 3.73142904,16.6255 4.38742904,13.5625 C5.04342904,10.4995 6.74642904,8.0205 9.49642904,6.1245 L9.49542904,6.1245 Z M25.933419,15.6565 C26.100119,15.5735 26.266719,15.5475 26.433419,15.5785 C26.600119,15.6095 26.735419,15.6985 26.839419,15.8445 L27.558419,16.9385 C27.850419,17.4175 27.944119,17.9125 27.839419,18.4225 C27.734719,18.9325 27.453419,19.3545 26.995419,19.6885 L25.870419,20.4075 C25.724419,20.5115 25.568119,20.5425 25.401419,20.5015 C25.234719,20.4605 25.088719,20.3665 24.963419,20.2205 L23.525419,18.0015 C23.421419,17.8345 23.390119,17.6685 23.431419,17.5015 C23.472719,17.3345 23.566419,17.1995 23.712419,17.0955 L25.933419,15.6565 Z" id="&#24418;&#29366;" fill-rule="nonzero" />
    </g>
</svg>

<svg xmlns="http://www.w3.org/2000/svg" viewBox="0 0 32 32"><path fill="currentColor" d="M9.495 6.125c2.854-1.75 5.813-2.302 8.875-1.657 3.063.646 5.542 2.335 7.438 5.063l.563.97v.03a.617.617 0 0 1 .016.454.852.852 0 0 1-.266.39l-11 7.125a.685.685 0 0 1-.5.11.626.626 0 0 1-.406-.267l-.563-.875c-.25-.416-.328-.843-.234-1.28.094-.437.34-.792.734-1.063l7.031-4.594a.602.602 0 0 0 .297-.407.684.684 0 0 0-.109-.5.295.295 0 0 0-.125-.155C19.81 8.323 18.2 7.698 16.418 7.594c-1.78-.105-3.453.343-5.016 1.343-1.958 1.354-3.172 3.126-3.64 5.314-.47 2.188-.079 4.292 1.171 6.313 1.334 1.936 3.09 3.14 5.266 3.608 2.178.47 4.277.078 6.297-1.172.417-.25.844-.323 1.281-.218.438.104.792.354 1.063.75l.563.813c.084.167.11.328.078.483a.67.67 0 0 1-.234.392 4.77 4.77 0 0 1-.906.656c-2.854 1.75-5.812 2.301-8.875 1.656-3.062-.646-5.542-2.344-7.438-5.094-1.75-2.854-2.297-5.812-1.64-8.875.655-3.064 2.358-5.542 5.108-7.438zm16.438 9.532a.778.778 0 0 1 .5-.079c.167.032.302.12.406.267l.72 1.094c.291.479.385.974.28 1.483-.104.51-.386.933-.844 1.267l-1.125.718a.549.549 0 0 1-.469.095.835.835 0 0 1-.438-.281L23.525 18a.63.63 0 0 1-.094-.5.69.69 0 0 1 .281-.405z"/></svg>
